!!!OTL: Der Zauberer.
!!!OTL-incipit: ES WAREN ZWEI ZARTE KINDERLEIN
!!!ARE: Europa, Mitteleuropa, Deutschland, Niederrhein
!!!SCT: Z1077
!!!TXL: @@DE
!!!YEM: Copyright 1995, estate of Helmut Schaffrath.
**kern	**text
*ICvox	*
*M6/8	*
*k[f#]	*
*e:	*
!LO:TX:a:t=Vorſänger.	!
!LO:TX:a:t=Vom Niederrhein.	!
{8e	Es
=1	=1
4g	waren
8a	ʒwei
4b/	ʒar-
8a	-te
=2	=2
(8.ddL	Kin-
16cc#J)	.
(16bL	-der-
16a#J)	.
4b;}	-lein,
{8b	ein
=3	=3
4ee	Kna-
8ee	-be
4ccn	und
8b	ein
=4	=4
8.ddL	Mäg-
16ccJ	.
16bL	-de-
16aJ	.
4g;}	-lein,
{8a	ihr
=5	=5
8bL	Va-
8aJ	.
8b/	-ter
8aL	war
8gJ	.
8a	ein
=6	=6
4f#	gott-
16gL	-loſer
16f#J	.
4e;}	Bub',
{8b	er
=7	=7
4b	ſchwur
8a	die
8b/	Kin-
8a	-der
8g	dem
=8	=8
4f#	Teu-
8e	-fel
4d;}	ʒu!
!LO:TX:a:t=Alle.	!
{8d	O
=9	=9
4g	höch-
8a	-ſter
4b/	Gott
8a	im
=10	=10
8.gL	Him-
16f#J	.
16eL	-mel-
16f#J	.
4e}	-reich!
==	==
!!!Ag: Romanze, Ballade
!!!ONB: ESAC (Essen Associative Code) Database: ZUCCAL
!!!AMT: compound duple
!!!AIN: vox
!!!EED: Helmut Schaffrath
!!!EEV: 1.0
!!!GTL: II. Gau- Leuschen.
!!!URL-scan: https://www.digitale-sammlungen.de/de/view/bsb11160573?page=165
!!!ENC: Anna Maria Matuszewska
!!!EEV: 2025/03/02
*-	*-
